X:1
T:Judge Me O God, and Plead My Cause
T:Judge Me O God, and Plead My Cause
T:Oliver Holden, 1796
T:Joel Barlow, 1785
T:Public Domain Courtesy of the Cyber Hymnal™
C:Oliver Holden, 1796
Z:Public Domain
Z:Courtesy of the Cyber Hymnal™
%%score ( 1 2 ) ( 3 4 )
L:1/8
M:2/2
K:G
V:1 treble 
V:2 treble 
V:3 bass 
V:4 bass 
V:1
 [DG]4 [DB]2 [Gd]2 | [Fc]2 [GB]2 [FA]2 G2 | [GB]6 [Fd]2 | (A2 G2) (A2 B2) | (c2 B2) (c2 d2) | %5
w: 1.~Judge me, O|God, and plead my|cause A-|gainst * a *|sin- * ful *|
w: 2.~On Thee my|stead- fast hope de-|pends, And|am * I *|left * to *|
w: 3.~O send Thy|light to guide my|feet And|bid * Thy *|truth * ap- *|
w: 4.~Then to Thy|al- tar, oh my|God, My|joy- * ful *|feet * shall *|
 (e4 d4) | [Dd]4 [B,B]2 [Dd]2 | [B,B]2 [G,G]2 [B,B]2 [Dd]2 | [Ec]6 [GB]2 | [Fd]6 [DB]2 | %10
w: race; *|From vile op-|pres- sion and de-|ceit Se-|cure me|
w: mourn? *|To sink in|sor- rows and in|vain Im-|plore Thy|
w: pear; *|Con- duct me|to Thy ho- ly|hill And|taste Thy|
w: rise, *|And my tri-|um- phant songs shall|praise The|God that|
 [FA]6 [FA]2 | G6 [G,G]2 | [B,B]2 [Dd]2 [B,B]2 [G,G]2 | [B,B]2 [Dd]2 [GB]3 [FA] | %14
w: by Thy|grace. From|vile op- pres- sion|and de- ceit Se-|
w: kind re-|turn? To|sink in sor- rows|and in vain Im-|
w: mer- cies|there. Con-|duct me to Thy|ho- ly hill And|
w: rules the|skies. And|my tri- um- phant|songs shall praise The|
 !fermata![EG]4 (c2 de) | [Fd]4 [Dc]4 | [DB]8 |] %17
w: cure me * *|by Thy|grace.|
w: plore Thy * *|kind re-|turn?|
w: taste Thy * *|mer- cies|there.|
w: God that * *|rules the|skies.|
V:2
 x8 | x6 G2 | x8 | F4 F4 | F4 F4 | G8 | x8 | x8 | x8 | x8 | x8 | G6 x2 | x8 | x8 | x4 E4 | x8 | %16
 x8 |] %17
V:3
 [G,B,]4 G,2 [G,B,]2 | [D,A,]2 [D,G,]2 [D,A,]2 [D,B,]2 | G,6 [D,A,]2 | (D,2 E,2) (F,2 G,2) | %4
 (A,2 G,2) (A,2 B,2) | (C4 B,4) | [D,D]4 [B,,B,]2 [D,D]2 | [B,,B,]2 [G,,G,]2 [B,,B,]2 [D,D]2 | %8
 [C,C]6 [G,,B,]2 | [D,A,]6 G,2 | [F,C]6 (DC) | [G,B,]6 G,2 | B,2 D2 B,2 G,2 | B,2 D2 [G,E]3 [F,F] | %14
 [E,G]4 (A,2 B,C) | [D,B,]4 [D,A,]4 | [G,,G,]8 |] %17
V:4
 x4 G,2 x2 | x8 | G,6 x2 | D,4 D,4 | D,4 D,4 | G,8 | x8 | x8 | x8 | x6 G,2 | x6 D,2 | x6 G,2 | %12
 B,2 D2 B,2 G,2 | B,2 D2 x4 | x4 C,4 | x8 | x8 |] %17

